!!!Genre:	Freylekhs
!!!Mode:	Altered Dorian
!!!Listening/dance:	dance
!!!:	*G:
!!!One_Mode:	no
**kern
*part1
*staff1
*clefG2
*k[b-]
*G:
=14!|:
*>C
*k[f#]
2b
=15
2b
=16
(>8qcc/
4b)
(>8qcc/
4b)
=17
4b
(>8.bL
16ddJk)
=18
(>16ddLL
16cc)
(>16cc
16bJJ)
8.bL
16ddJk
=19
(>16ddLL
16cc)
(>16cc
16bJJ)
8.bL
16ddJk
=20
(>16ddLL
16cc)
(>16cc
16bJJ)
(<16bLL
16a)
(<16a
16gJJ)
=21
16aLL
16bJJ
4g
24dLL
24g
24aJJ
=22:|!
(<16aLL
16bJJ
4g)
8d
*>eM
==
*-
